scwebsite/images/scroll.svg

<svg width="258" height="258" viewBox="0 0 258 258" xmlns="http://www.w3.org/2000/svg">
  <title>
    Oval 1 + Path 2
  </title>
  <g fill="none" fill-rule="evenodd">
    <path d="M129 258c71.245 0 129-57.755 129-129S200.245 0 129 0 0 57.755 0 129s57.755 129 129 129z" fill="#E94F37"/>
    <path d="M42 86.562h15.5l71.25 71.25 71.5-71.5H216l-85.376 85.376h-2.766l-85.86-85.126z" fill="#FFF"/>
  </g>
</svg>

<?xml version="1.0" encoding="UTF-8" standalone="no"?>
<svg width="258px" height="258px" viewBox="0 0 258 258" version="1.1" xmlns="http://www.w3.org/2000/svg" xmlns:xlink="http://www.w3.org/1999/xlink" xmlns:sketch="http://www.bohemiancoding.com/sketch/ns">
    <!-- Generator: Sketch 3.3.2 (12043) - http://www.bohemiancoding.com/sketch -->
    <title>scroll</title>
    <desc>Created with Sketch.</desc>
    <defs></defs>
    <g id="Page-1" stroke="none" stroke-width="1" fill="none" fill-rule="evenodd" sketch:type="MSPage">
        <g id="scroll" sketch:type="MSLayerGroup">
            <g id="Group" sketch:type="MSShapeGroup">
                <path d="M129,258 C200.245,258 258,200.245 258,129 C258,57.755 200.245,0 129,0 C57.755,0 0,57.755 0,129 C0,200.245 57.755,258 129,258 L129,258 Z" id="Shape" fill="#FF4949"></path>
                <path d="M42,86.562 L57.5,86.562 L128.75,157.812 L200.25,86.312 L216,86.312 L130.624,171.688 L127.858,171.688 L41.998,86.562 L42,86.562 Z" id="Shape" fill="#FFFFFF"></path>
            </g>
        </g>
    </g>
</svg>
